resources/svg/history-o.svg

<svg xmlns="http://www.w3.org/2000/svg" viewBox="0 0 15 15" fill="none"><path d="M2.5 12.399L2.87012 12.0628L2.86375 12.0558L2.85712 12.049L2.5 12.399ZM3.5 13.5V14H4V13.5H3.5ZM7 14.4824L7.01757 13.9827L6.9648 14.9812L7 14.4824ZM7.5 7.5H7C7 7.63261 7.05268 7.75979 7.14645 7.85355L7.5 7.5ZM14 7.5C14 11.0899 11.0899 14 7.5 14V15C11.6421 15 15 11.6421 15 7.5H14ZM7.5 1C11.0899 1 14 3.91015 14 7.5H15C15 3.35786 11.6421 0 7.5 0V1ZM7.5 0C3.35786 0 0 3.35786 0 7.5H1C1 3.91015 3.91015 1 7.5 1V0ZM2.85712 12.049C1.7078 10.8762 1 9.27124 1 7.5H0C0 9.54337 0.817823 11.3967 2.14288 12.7489L2.85712 12.049ZM2.12988 12.7351L3.12988 13.8362L3.87012 13.1638L2.87012 12.0628L2.12988 12.7351ZM7.5 14C7.34364 14 7.18865 13.9945 7.0352 13.9837L6.9648 14.9812C7.14166 14.9937 7.32013 15 7.5 15V14ZM7.51757 14.0003L7.01757 13.9827L6.98243 14.9821L7.48243 14.9997L7.51757 14.0003ZM7 3V7.5H8V3H7ZM7.14645 7.85355L10.1464 10.8536L10.8536 10.1464L7.85355 7.14645L7.14645 7.85355ZM0 14H3.5V13H0V14ZM4 13.5V10H3V13.5H4Z" fill="black"/></svg>

<svg xmlns="http://www.w3.org/2000/svg" viewBox="0 0 15 15" fill="none"><path d="M2.5 12.399l.37-.336-.006-.007-.007-.007-.357.35zm1 1.101v.5H4v-.5h-.5zm3.5.982l.018-.5-.053 1 .035-.5zM7.5 7.5H7a.5.5 0 00.146.354L7.5 7.5zm6.5 0A6.5 6.5 0 017.5 14v1A7.5 7.5 0 0015 7.5h-1zM7.5 1A6.5 6.5 0 0114 7.5h1A7.5 7.5 0 007.5 0v1zm0-1A7.5 7.5 0 000 7.5h1A6.5 6.5 0 017.5 1V0zM2.857 12.049A6.477 6.477 0 011 7.5H0c0 2.043.818 3.897 2.143 5.249l.714-.7zm-.727.686l1 1.101.74-.672-1-1.101-.74.672zM7.5 14a6.62 6.62 0 01-.465-.016l-.07.997c.177.013.355.019.535.019v-1zm.018 0l-.5-.017-.036 1 .5.017.036-1zM7 3v4.5h1V3H7zm.146 4.854l3 3 .708-.708-3-3-.708.708zM0 14h3.5v-1H0v1zm4-.5V10H3v3.5h1z" fill="currentColor"/></svg>
